flaticon/army-badges/gun.svg

<svg xmlns="http://www.w3.org/2000/svg" width="32" height="32" viewBox="0 0 24 24">
    <path d="M4.417969 17.792969C4.855469 17.792969 5.21875 17.433594 5.21875 16.996094 5.21875 16.554688 4.855469 16.195312 4.417969 16.195312 3.976562 16.195312 3.617188 16.554688 3.617188 16.996094 3.617188 17.433594 3.976562 17.792969 4.417969 17.792969zM6.015625 13.796875C6.457031 13.796875 6.816406 13.480469 6.816406 13 6.816406 12.558594 6.457031 12.199219 6.015625 12.199219 5.578125 12.199219 5.21875 12.558594 5.21875 13 5.21875 13.4375 5.578125 13.796875 6.015625 13.796875zM7.613281 7.804688L2.820312 7.804688C2.578125 7.804688 2.417969 7.964844 2.417969 8.203125 2.417969 8.441406 2.578125 8.601562 2.820312 8.601562L7.613281 8.601562C7.855469 8.601562 8.015625 8.441406 8.015625 8.203125 8.015625 7.964844 7.855469 7.804688 7.613281 7.804688zM7.613281 6.207031L2.820312 6.207031C2.578125 6.207031 2.417969 6.363281 2.417969 6.605469 2.417969 6.84375 2.578125 7.003906 2.820312 7.003906L7.613281 7.003906C7.855469 7.003906 8.015625 6.84375 8.015625 6.605469 8.015625 6.363281 7.855469 6.207031 7.613281 6.207031zM7.613281 6.207031"/>
    <path d="M 23.601562 3.808594 L 22.800781 3.808594 L 22.800781 3.007812 C 22.800781 2.769531 22.640625 2.609375 22.402344 2.609375 L 20.003906 2.609375 C 19.765625 2.609375 19.605469 2.769531 19.605469 3.007812 L 19.605469 3.808594 L 5.617188 3.808594 L 5.617188 3.007812 C 5.617188 2.769531 5.457031 2.609375 5.21875 2.609375 L 2.820312 2.609375 C 2.578125 2.609375 2.417969 2.769531 2.417969 3.007812 L 2.417969 3.808594 L 0.421875 3.808594 C 0.179688 3.808594 0.0234375 3.96875 0.0234375 4.207031 L 0.0234375 5.40625 C 0.0234375 5.527344 0.0625 5.605469 0.101562 5.644531 L 0.542969 6.246094 C 0.859375 6.683594 0.859375 7.324219 0.542969 7.765625 L 0.101562 8.363281 C 0.0625 8.441406 0.0234375 8.523438 0.0234375 8.601562 L 0.0234375 9.800781 C 0.0234375 10.042969 0.179688 10.203125 0.421875 10.203125 L 1.941406 10.203125 C 2.339844 10.203125 2.699219 10.402344 2.898438 10.722656 C 3.097656 11.039062 3.097656 11.441406 2.9375 11.800781 L 0.261719 17.15625 C -0.21875 18.195312 -0.0195312 19.433594 0.699219 20.3125 C 1.261719 20.992188 2.140625 21.390625 3.097656 21.390625 L 7.613281 21.390625 C 8.335938 21.390625 8.972656 20.953125 9.292969 20.3125 C 9.613281 19.671875 9.492188 18.914062 9.011719 18.355469 L 8.492188 17.753906 C 8.453125 17.675781 8.414062 17.554688 8.414062 17.476562 L 9.453125 14.199219 L 11.570312 14.199219 C 13.371094 14.199219 14.808594 12.757812 14.847656 10.960938 L 14.847656 10.203125 L 17.207031 10.203125 C 17.445312 10.203125 17.605469 10.042969 17.605469 9.800781 L 22.402344 9.800781 C 22.640625 9.800781 22.800781 9.640625 22.800781 9.402344 L 22.800781 8.203125 L 23.601562 8.203125 C 23.839844 8.203125 24 8.042969 24 7.804688 L 24 4.207031 C 24 3.96875 23.839844 3.808594 23.601562 3.808594 Z M 20.402344 3.40625 L 22 3.40625 L 22 3.808594 L 20.402344 3.808594 Z M 14.808594 4.605469 L 14.808594 6.207031 L 10.011719 6.207031 L 10.011719 4.605469 Z M 3.21875 3.40625 L 4.816406 3.40625 L 4.816406 3.808594 L 3.21875 3.808594 Z M 7.855469 18.273438 C 7.894531 18.3125 8.414062 18.914062 8.414062 18.914062 C 8.695312 19.234375 8.734375 19.632812 8.574219 20.03125 C 8.375 20.390625 8.054688 20.632812 7.613281 20.632812 L 3.097656 20.632812 C 2.378906 20.632812 1.738281 20.3125 1.339844 19.832031 C 0.820312 19.152344 0.699219 18.273438 1.019531 17.515625 L 3.660156 12.199219 C 3.976562 11.601562 3.9375 10.882812 3.578125 10.320312 C 3.539062 10.28125 3.539062 10.242188 3.5 10.203125 L 4.992188 10.203125 L 1.699219 17.875 C 1.5 18.355469 1.621094 18.914062 1.941406 19.3125 C 2.21875 19.59375 2.621094 19.792969 3.097656 19.792969 L 5.015625 19.792969 C 5.535156 19.792969 6.015625 19.472656 6.136719 18.992188 L 9.054688 10.203125 L 9.851562 10.203125 C 9.851562 10.203125 7.613281 17.355469 7.613281 17.394531 C 7.574219 17.714844 7.65625 18.035156 7.855469 18.273438 Z M 8.253906 10.203125 L 5.457031 18.714844 C 5.375 18.875 5.21875 18.992188 5.015625 18.992188 L 3.097656 18.992188 C 2.859375 18.992188 2.660156 18.914062 2.578125 18.832031 C 2.417969 18.632812 2.378906 18.394531 2.460938 18.195312 L 5.894531 10.203125 Z M 14.007812 10.960938 C 14.007812 12.320312 12.929688 13.398438 11.570312 13.398438 L 9.707031 13.398438 L 10.429688 11.121094 C 10.777344 11.75 11.289062 12.09375 12.289062 12.441406 C 12.332031 12.480469 12.371094 12.480469 12.410156 12.480469 C 12.570312 12.480469 12.730469 12.359375 12.769531 12.160156 C 12.851562 11.921875 12.730469 11.71875 12.53125 11.640625 C 11.371094 11.242188 11.132812 10.921875 10.933594 10.242188 C 10.925781 10.226562 10.917969 10.214844 10.914062 10.203125 L 14.007812 10.203125 Z M 22 9.003906 L 17.605469 9.003906 C 17.605469 8.5625 17.964844 8.203125 18.40625 8.203125 L 22 8.203125 Z M 23.199219 7.402344 L 18.40625 7.402344 C 17.527344 7.402344 16.804688 8.125 16.804688 9.003906 L 16.804688 9.402344 L 0.820312 9.402344 L 0.820312 8.761719 L 1.179688 8.242188 C 1.738281 7.523438 1.738281 6.484375 1.179688 5.765625 L 0.820312 5.285156 L 0.820312 4.605469 L 9.214844 4.605469 L 9.214844 6.605469 C 9.214844 6.84375 9.375 7.003906 9.613281 7.003906 L 15.207031 7.003906 C 15.449219 7.003906 15.609375 6.84375 15.609375 6.605469 L 15.609375 4.605469 L 23.199219 4.605469 Z M 23.199219 7.402344"/>
</svg>

<svg xmlns="http://www.w3.org/2000/svg" width="32" height="32" viewBox="0 0 24 24">
    <path d="M4.418 17.793c.437 0 .8-.36.8-.797 0-.441-.363-.8-.8-.8-.441 0-.8.359-.8.8 0 .438.359.797.8.797zm0 0M6.016 13.797c.441 0 .8-.317.8-.797 0-.441-.359-.8-.8-.8a.801.801 0 0 0-.797.8.8.8 0 0 0 .797.797zm0 0M7.613 7.805H2.82c-.242 0-.402.16-.402.398 0 .238.16.399.402.399h4.793c.242 0 .403-.16.403-.399 0-.238-.16-.398-.403-.398zm0 0M7.613 6.207H2.82c-.242 0-.402.156-.402.398 0 .239.16.399.402.399h4.793c.242 0 .403-.16.403-.399 0-.242-.16-.398-.403-.398zm0 0"/>
    <path d="M23.602 3.809H22.8v-.801c0-.238-.16-.399-.399-.399h-2.398c-.238 0-.399.16-.399.399v.8H5.617v-.8c0-.238-.16-.399-.398-.399H2.82c-.242 0-.402.16-.402.399v.8H.422c-.242 0-.399.16-.399.399v1.2c0 .12.04.198.079.238l.441.601a1.335 1.335 0 0 1 0 1.52l-.441.597a.57.57 0 0 0-.079.239V9.8c0 .242.157.402.399.402h1.52c.398 0 .757.2.956.52.2.316.2.718.04 1.078L.261 17.156c-.48 1.04-.282 2.278.437 3.157.563.68 1.442 1.078 2.399 1.078h4.515c.723 0 1.36-.438 1.68-1.078.32-.641.2-1.399-.281-1.958l-.52-.601a.743.743 0 0 1-.078-.277l1.04-3.278h2.116c1.801 0 3.239-1.441 3.278-3.238v-.758h2.359c.238 0 .398-.16.398-.402h4.797c.239 0 .399-.16.399-.399V8.203h.8c.239 0 .399-.16.399-.398V4.207c0-.238-.16-.398-.398-.398zm-3.2-.403H22v.403h-1.598zm-5.593 1.2v1.601h-4.797V4.605zm-11.59-1.2h1.597v.403H3.22zm4.636 14.867c.04.04.56.641.56.641.28.32.32.719.16 1.117-.2.36-.52.602-.962.602H3.098c-.72 0-1.36-.32-1.758-.801-.52-.68-.64-1.559-.32-2.316l2.64-5.317a1.87 1.87 0 0 0-.082-1.879c-.039-.039-.039-.078-.078-.117h1.492L1.7 17.875c-.199.48-.078 1.04.242 1.438.278.28.68.48 1.157.48h1.918c.52 0 1-.32 1.12-.8l2.919-8.79h.797s-2.239 7.152-2.239 7.192c-.039.32.043.64.242.878zm.399-8.07l-2.797 8.512a.49.49 0 0 1-.441.277H3.098c-.239 0-.438-.078-.52-.16-.16-.2-.2-.437-.117-.637l3.434-7.992zm5.754.758a2.42 2.42 0 0 1-2.438 2.437H9.707l.723-2.277c.347.629.86.973 1.86 1.32.042.04.081.04.12.04.16 0 .32-.122.36-.32a.398.398 0 0 0-.239-.52c-1.16-.399-1.398-.72-1.597-1.399-.008-.015-.016-.027-.02-.039h3.094zM22 9.004h-4.395c0-.441.36-.8.801-.8H22zm1.2-1.602h-4.794c-.879 0-1.601.723-1.601 1.602v.398H.82v-.64l.36-.52a2.04 2.04 0 0 0 0-2.476l-.36-.48v-.68h8.395v2c0 .238.16.398.398.398h5.594c.242 0 .402-.16.402-.399v-2h7.59zm0 0"/>
</svg>
